Newaita-dark/apps/24/preferences-desktop-notification-bell.svg

<svg height="24" viewBox="0 0 24 24" width="24" xmlns="http://www.w3.org/2000/svg" xmlns:xlink="http://www.w3.org/1999/xlink"><linearGradient id="a"><stop offset="0" stop-opacity=".313726"/><stop offset=".222222" stop-opacity=".27451"/><stop offset="1" stop-opacity="0"/></linearGradient><radialGradient id="b" cx="450.908936" cy="189.579361" gradientTransform="matrix(.00000013 -.0585994 -.105479 -.00000008 31.903939 47.696498)" gradientUnits="userSpaceOnUse" r="21.166656" xlink:href="#a"/><radialGradient id="c" cx="450.908936" cy="189.579361" gradientTransform="matrix(-.00000013 .0585994 .105479 .00000008 -8.089166 -5.645611)" gradientUnits="userSpaceOnUse" r="21.166656" xlink:href="#a"/><radialGradient id="d" cx="450.908936" cy="189.579361" gradientTransform="matrix(-.00000013 -.0585994 .105479 -.00000008 -8.089166 47.696498)" gradientUnits="userSpaceOnUse" r="21.166656" xlink:href="#a"/><radialGradient id="e" cx="450.908936" cy="189.579361" gradientTransform="matrix(.00000013 .0585994 -.105479 .00000008 31.903938 -5.645611)" gradientUnits="userSpaceOnUse" r="21.166656" xlink:href="#a"/><linearGradient id="f" gradientTransform="matrix(.0100201 0 0 .0374615 9.349036 12.477532)" gradientUnits="userSpaceOnUse" x1="255.322968" x2="255.323044" y1="228.178589" y2="254.666656"><stop offset="0" stop-opacity=".27451"/><stop offset="1" stop-opacity="0"/></linearGradient><linearGradient id="g"><stop offset="0" stop-color="#ffa726"/><stop offset="1" stop-color="#ffb74d"/></linearGradient><linearGradient id="h" gradientUnits="userSpaceOnUse" x1="12.89967524995" x2="12.89967524995" xlink:href="#g" y1="19.04088500002" y2="21.02545025"/><linearGradient id="i" gradientUnits="userSpaceOnUse" x1="11.41125187502" x2="11.41125187502" xlink:href="#g" y1="5.14892599998" y2="2.17207850005"/><linearGradient id="j" gradientUnits="userSpaceOnUse" x1="11.90736" x2="11.90736" xlink:href="#g" y1="21.02539814717" y2="2.17207777507"/><path d="m12.15625 21.027344h1.984375v-.996094h-1.984375zm0 0" fill="url(#b)"/><path d="m11.660156 21.027344h-1.984375v.992187h1.984375zm0 0" fill="url(#c)"/><path d="m11.660156 21.027344h-1.984375v-.996094h1.984375zm0 0" fill="url(#d)"/><path d="m12.15625 21.027344h1.984375v.992187h-1.984375zm0 0" fill="url(#e)"/><path d="m11.660156 21.027344h.496094v.992187h-.496094zm0 0" fill="url(#f)"/><path d="m11.90625 17.054688c1.097656 0 1.984375.890624 1.984375 1.984374 0 1.097657-.886719 1.988282-1.984375 1.988282-1.09375 0-1.984375-.890625-1.984375-1.988282 0-1.09375.890625-1.984374 1.984375-1.984374zm0 0" fill="url(#h)"/><path d="m9.929688 18.855469c-.003907.0625-.007813.121093-.007813.183593 0 1.101563.886719 1.988282 1.984375 1.988282 1.101562 0 1.984375-.886719 1.984375-1.988282 0-.0625 0-.121093-.007813-.183593-.09375 1.011719-.9375 1.796875-1.976562 1.796875-1.035156 0-1.882812-.785156-1.976562-1.796875zm0 0" fill-opacity=".235294"/><path d="m253.975747 148.798592c23.41443 0 42.329291 18.998186 42.329291 42.329291 0 23.414431-18.914861 42.412617-42.329291 42.412617-23.331106 0-42.329292-18.998186-42.329292-42.412617 0-23.331105 18.998186-42.329291 42.329292-42.329291zm0 0" fill="none" stroke="#212121" stroke-linecap="round" stroke-linejoin="round" stroke-width="3" transform="matrix(.0468795 0 0 .0468795 0 10.079087)"/><path d="m11.90625 2.171875c.550781 0 .992188.445313.992188.992187v.992188c0 .546875-.441407.992188-.992188.992188-.546875 0-.992188-.445313-.992188-.992188v-.992188c0-.546874.445313-.992187.992188-.992187zm0 0" fill="url(#i)"/><path d="m11.90625 2.171875c-.546875 0-.992188.441406-.992188.992187v.371094c0-.546875.445313-.992187.992188-.992187.550781 0 .992188.445312.992188.992187v-.371094c0-.550781-.441407-.992187-.992188-.992187zm0 0" fill="#fff" fill-opacity=".392157"/><path d="m253.975747-168.671091c11.748878 0 21.164645 9.499093 21.164645 21.164646v21.164645c0 11.665553-9.415767 21.164646-21.164645 21.164646-11.665553 0-21.164646-9.499093-21.164646-21.164646v-21.164645c0-11.665553 9.499093-21.164646 21.164646-21.164646zm0 0" fill="none" stroke="#212121" stroke-linecap="round" stroke-linejoin="round" stroke-width="3" transform="matrix(.0468795 0 0 .0468795 0 10.079087)"/><path d="m11.90625 3.164062c-3.296875 0-5.953125 2.65625-5.953125 5.953126v5.707031l-1.8125 2.71875c-.4375.65625.03125 1.535156.820313 1.535156h13.890624c.789063 0 1.261719-.878906.824219-1.535156l-1.816406-2.71875v-5.707031c0-3.296876-2.652344-5.953126-5.953125-5.953126zm0 0" fill="url(#j)"/><path d="m11.90625 3.164062c-3.296875 0-5.953125 2.65625-5.953125 5.953126v.25c0-3.300782 2.65625-5.953126 5.953125-5.953126 3.300781 0 5.953125 2.652344 5.953125 5.953126v-.25c0-3.296876-2.652344-5.953126-5.953125-5.953126zm-5.953125 11.660157-1.8125 2.71875c-.140625.214843-.1875.449219-.160156.671875.019531-.144532.070312-.289063.160156-.421875l1.8125-2.722657zm11.90625 0v.246093l1.816406 2.722657c.089844.132812.140625.277343.160157.421875.027343-.222656-.019532-.457032-.160157-.671875zm0 0" fill="#fff" fill-opacity=".392157"/><path d="m3.980469 17.964844c-.074219.558594.351562 1.113281.980469 1.113281h13.890624c.628907 0 1.054688-.554687.984376-1.113281-.0625.464844-.449219.867187-.984376.867187h-13.890624c-.535157 0-.921876-.402343-.980469-.867187zm0 0" fill-opacity=".235294"/><path d="m959.908384 255.093763c-265.801403 0-479.954192 214.152789-479.954192 479.954192v460.113566l-146.127786 219.191678c-35.272224 52.908336 2.519445 123.767715 66.135421 123.767715h1119.893114c63.615976 0 101.722575-70.859379 66.450351-123.767715l-146.442716-219.191678v-460.113566c0-265.801403-213.837859-479.954192-479.954192-479.954192zm0 0" fill="none" stroke="#212121" stroke-linecap="round" stroke-linejoin="round" stroke-width="11.338583" transform="scale(.0124035)"/><path d="m9.925781 19.164062c.007813.082032.015625.167969.03125.246094h3.902344c.011719-.078125.023437-.164062.027344-.246094zm0 0" fill-opacity=".235294"/><path d="m10.070312 5.023438c.355469.207031.3125.949218-.097656 1.664062-.414062.710938-1.035156 1.121094-1.390625.914062-.355469-.203124-.3125-.949218.101563-1.660156.410156-.710937 1.03125-1.121094 1.386718-.917968zm0 0" fill="#fff" fill-opacity=".196078"/></svg>

<?xml version="1.0" encoding="UTF-8"?>
<svg xmlns="http://www.w3.org/2000/svg" xmlns:xlink="http://www.w3.org/1999/xlink" width="24px" height="24px" viewBox="0 0 24 24" version="1.1">
<defs>
<radialGradient id="radial0" gradientUnits="userSpaceOnUse" cx="450.908936" cy="189.579361" fx="450.908936" fy="189.579361" r="21.166656" gradientTransform="matrix(0.000000130628,-0.0585994,-0.105479,-0.0000000761539,31.903939,47.696498)">
<stop offset="0" style="stop-color:rgb(0%,0%,0%);stop-opacity:0.313726;"/>
<stop offset="0.222222" style="stop-color:rgb(0%,0%,0%);stop-opacity:0.27451;"/>
<stop offset="1" style="stop-color:rgb(0%,0%,0%);stop-opacity:0;"/>
</radialGradient>
<radialGradient id="radial1" gradientUnits="userSpaceOnUse" cx="450.908936" cy="189.579361" fx="450.908936" fy="189.579361" r="21.166656" gradientTransform="matrix(-0.000000130628,0.0585994,0.105479,0.0000000761539,-8.089166,-5.645611)">
<stop offset="0" style="stop-color:rgb(0%,0%,0%);stop-opacity:0.313726;"/>
<stop offset="0.222222" style="stop-color:rgb(0%,0%,0%);stop-opacity:0.27451;"/>
<stop offset="1" style="stop-color:rgb(0%,0%,0%);stop-opacity:0;"/>
</radialGradient>
<radialGradient id="radial2" gradientUnits="userSpaceOnUse" cx="450.908936" cy="189.579361" fx="450.908936" fy="189.579361" r="21.166656" gradientTransform="matrix(-0.000000130628,-0.0585994,0.105479,-0.0000000761539,-8.089166,47.696498)">
<stop offset="0" style="stop-color:rgb(0%,0%,0%);stop-opacity:0.313726;"/>
<stop offset="0.222222" style="stop-color:rgb(0%,0%,0%);stop-opacity:0.27451;"/>
<stop offset="1" style="stop-color:rgb(0%,0%,0%);stop-opacity:0;"/>
</radialGradient>
<radialGradient id="radial3" gradientUnits="userSpaceOnUse" cx="450.908936" cy="189.579361" fx="450.908936" fy="189.579361" r="21.166656" gradientTransform="matrix(0.000000130628,0.0585994,-0.105479,0.0000000761539,31.903938,-5.645611)">
<stop offset="0" style="stop-color:rgb(0%,0%,0%);stop-opacity:0.313726;"/>
<stop offset="0.222222" style="stop-color:rgb(0%,0%,0%);stop-opacity:0.27451;"/>
<stop offset="1" style="stop-color:rgb(0%,0%,0%);stop-opacity:0;"/>
</radialGradient>
<linearGradient id="linear0" gradientUnits="userSpaceOnUse" x1="255.322968" y1="228.178589" x2="255.323044" y2="254.666656" gradientTransform="matrix(0.0100201,0,0,0.0374615,9.349036,12.477532)">
<stop offset="0" style="stop-color:rgb(0%,0%,0%);stop-opacity:0.27451;"/>
<stop offset="1" style="stop-color:rgb(0%,0%,0%);stop-opacity:0;"/>
</linearGradient>
<linearGradient id="linear1" gradientUnits="userSpaceOnUse" x1="275.166656" y1="191.166672" x2="275.166656" y2="233.5" gradientTransform="matrix(0.0468795,0,0,0.0468795,0,10.079087)">
<stop offset="0" style="stop-color:rgb(100%,65.490198%,14.901961%);stop-opacity:1;"/>
<stop offset="1" style="stop-color:rgb(100%,71.764708%,30.19608%);stop-opacity:1;"/>
</linearGradient>
<linearGradient id="linear2" gradientUnits="userSpaceOnUse" x1="243.416672" y1="-105.166672" x2="243.416672" y2="-168.666656" gradientTransform="matrix(0.0468795,0,0,0.0468795,0,10.079087)">
<stop offset="0" style="stop-color:rgb(100%,65.490198%,14.901961%);stop-opacity:1;"/>
<stop offset="1" style="stop-color:rgb(100%,71.764708%,30.19608%);stop-opacity:1;"/>
</linearGradient>
<linearGradient id="linear3" gradientUnits="userSpaceOnUse" x1="960" y1="1695.118164" x2="960" y2="175.118134" gradientTransform="matrix(0.0124035,0,0,0.0124035,0,0.00000000000000141)">
<stop offset="0" style="stop-color:rgb(100%,65.490198%,14.901961%);stop-opacity:1;"/>
<stop offset="1" style="stop-color:rgb(100%,71.764708%,30.19608%);stop-opacity:1;"/>
</linearGradient>
</defs>
<g id="surface1">
<path style=" stroke:none;fill-rule:nonzero;fill:url(#radial0);" d="M 12.15625 21.027344 L 14.140625 21.027344 L 14.140625 20.03125 L 12.15625 20.03125 Z M 12.15625 21.027344 "/>
<path style=" stroke:none;fill-rule:nonzero;fill:url(#radial1);" d="M 11.660156 21.027344 L 9.675781 21.027344 L 9.675781 22.019531 L 11.660156 22.019531 Z M 11.660156 21.027344 "/>
<path style=" stroke:none;fill-rule:nonzero;fill:url(#radial2);" d="M 11.660156 21.027344 L 9.675781 21.027344 L 9.675781 20.03125 L 11.660156 20.03125 Z M 11.660156 21.027344 "/>
<path style=" stroke:none;fill-rule:nonzero;fill:url(#radial3);" d="M 12.15625 21.027344 L 14.140625 21.027344 L 14.140625 22.019531 L 12.15625 22.019531 Z M 12.15625 21.027344 "/>
<path style=" stroke:none;fill-rule:nonzero;fill:url(#linear0);" d="M 11.660156 21.027344 L 12.15625 21.027344 L 12.15625 22.019531 L 11.660156 22.019531 Z M 11.660156 21.027344 "/>
<path style=" stroke:none;fill-rule:nonzero;fill:url(#linear1);" d="M 11.90625 17.054688 C 13.003906 17.054688 13.890625 17.945312 13.890625 19.039062 C 13.890625 20.136719 13.003906 21.027344 11.90625 21.027344 C 10.8125 21.027344 9.921875 20.136719 9.921875 19.039062 C 9.921875 17.945312 10.8125 17.054688 11.90625 17.054688 Z M 11.90625 17.054688 "/>
<path style=" stroke:none;fill-rule:nonzero;fill:rgb(0%,0%,0%);fill-opacity:0.235294;" d="M 9.929688 18.855469 C 9.925781 18.917969 9.921875 18.976562 9.921875 19.039062 C 9.921875 20.140625 10.808594 21.027344 11.90625 21.027344 C 13.007812 21.027344 13.890625 20.140625 13.890625 19.039062 C 13.890625 18.976562 13.890625 18.917969 13.882812 18.855469 C 13.789062 19.867188 12.945312 20.652344 11.90625 20.652344 C 10.871094 20.652344 10.023438 19.867188 9.929688 18.855469 Z M 9.929688 18.855469 "/>
<path style="fill:none;stroke-width:3;stroke-linecap:round;stroke-linejoin:round;stroke:rgb(12.941177%,12.941177%,12.941177%);stroke-opacity:1;stroke-miterlimit:4;" d="M 253.975747 148.798592 C 277.390177 148.798592 296.305038 167.796778 296.305038 191.127883 C 296.305038 214.542314 277.390177 233.5405 253.975747 233.5405 C 230.644641 233.5405 211.646455 214.542314 211.646455 191.127883 C 211.646455 167.796778 230.644641 148.798592 253.975747 148.798592 Z M 253.975747 148.798592 " transform="matrix(0.0468795,0,0,0.0468795,0,10.079087)"/>
<path style=" stroke:none;fill-rule:nonzero;fill:url(#linear2);" d="M 11.90625 2.171875 C 12.457031 2.171875 12.898438 2.617188 12.898438 3.164062 L 12.898438 4.15625 C 12.898438 4.703125 12.457031 5.148438 11.90625 5.148438 C 11.359375 5.148438 10.914062 4.703125 10.914062 4.15625 L 10.914062 3.164062 C 10.914062 2.617188 11.359375 2.171875 11.90625 2.171875 Z M 11.90625 2.171875 "/>
<path style=" stroke:none;fill-rule:nonzero;fill:rgb(100%,100%,100%);fill-opacity:0.392157;" d="M 11.90625 2.171875 C 11.359375 2.171875 10.914062 2.613281 10.914062 3.164062 L 10.914062 3.535156 C 10.914062 2.988281 11.359375 2.542969 11.90625 2.542969 C 12.457031 2.542969 12.898438 2.988281 12.898438 3.535156 L 12.898438 3.164062 C 12.898438 2.613281 12.457031 2.171875 11.90625 2.171875 Z M 11.90625 2.171875 "/>
<path style="fill:none;stroke-width:3;stroke-linecap:round;stroke-linejoin:round;stroke:rgb(12.941177%,12.941177%,12.941177%);stroke-opacity:1;stroke-miterlimit:4;" d="M 253.975747 -168.671091 C 265.724625 -168.671091 275.140392 -159.171998 275.140392 -147.506445 L 275.140392 -126.3418 C 275.140392 -114.676247 265.724625 -105.177154 253.975747 -105.177154 C 242.310194 -105.177154 232.811101 -114.676247 232.811101 -126.3418 L 232.811101 -147.506445 C 232.811101 -159.171998 242.310194 -168.671091 253.975747 -168.671091 Z M 253.975747 -168.671091 " transform="matrix(0.0468795,0,0,0.0468795,0,10.079087)"/>
<path style=" stroke:none;fill-rule:nonzero;fill:url(#linear3);" d="M 11.90625 3.164062 C 8.609375 3.164062 5.953125 5.820312 5.953125 9.117188 L 5.953125 14.824219 L 4.140625 17.542969 C 3.703125 18.199219 4.171875 19.078125 4.960938 19.078125 L 18.851562 19.078125 C 19.640625 19.078125 20.113281 18.199219 19.675781 17.542969 L 17.859375 14.824219 L 17.859375 9.117188 C 17.859375 5.820312 15.207031 3.164062 11.90625 3.164062 Z M 11.90625 3.164062 "/>
<path style=" stroke:none;fill-rule:nonzero;fill:rgb(100%,100%,100%);fill-opacity:0.392157;" d="M 11.90625 3.164062 C 8.609375 3.164062 5.953125 5.820312 5.953125 9.117188 L 5.953125 9.367188 C 5.953125 6.066406 8.609375 3.414062 11.90625 3.414062 C 15.207031 3.414062 17.859375 6.066406 17.859375 9.367188 L 17.859375 9.117188 C 17.859375 5.820312 15.207031 3.164062 11.90625 3.164062 Z M 5.953125 14.824219 L 4.140625 17.542969 C 4 17.757812 3.953125 17.992188 3.980469 18.214844 C 4 18.070312 4.050781 17.925781 4.140625 17.792969 L 5.953125 15.070312 Z M 17.859375 14.824219 L 17.859375 15.070312 L 19.675781 17.792969 C 19.765625 17.925781 19.816406 18.070312 19.835938 18.214844 C 19.863281 17.992188 19.816406 17.757812 19.675781 17.542969 Z M 17.859375 14.824219 "/>
<path style=" stroke:none;fill-rule:nonzero;fill:rgb(0%,0%,0%);fill-opacity:0.235294;" d="M 3.980469 17.964844 C 3.90625 18.523438 4.332031 19.078125 4.960938 19.078125 L 18.851562 19.078125 C 19.480469 19.078125 19.90625 18.523438 19.835938 17.964844 C 19.773438 18.429688 19.386719 18.832031 18.851562 18.832031 L 4.960938 18.832031 C 4.425781 18.832031 4.039062 18.429688 3.980469 17.964844 Z M 3.980469 17.964844 "/>
<path style="fill:none;stroke-width:11.338583;stroke-linecap:round;stroke-linejoin:round;stroke:rgb(12.941177%,12.941177%,12.941177%);stroke-opacity:1;stroke-miterlimit:4;" d="M 959.908384 255.093763 C 694.106981 255.093763 479.954192 469.246552 479.954192 735.047955 L 479.954192 1195.161521 L 333.826406 1414.353199 C 298.554182 1467.261535 336.345851 1538.120914 399.961827 1538.120914 L 1519.854941 1538.120914 C 1583.470917 1538.120914 1621.577516 1467.261535 1586.305292 1414.353199 L 1439.862576 1195.161521 L 1439.862576 735.047955 C 1439.862576 469.246552 1226.024717 255.093763 959.908384 255.093763 Z M 959.908384 255.093763 " transform="matrix(0.0124035,0,0,0.0124035,0,0)"/>
<path style=" stroke:none;fill-rule:nonzero;fill:rgb(0%,0%,0%);fill-opacity:0.235294;" d="M 9.925781 19.164062 C 9.933594 19.246094 9.941406 19.332031 9.957031 19.410156 L 13.859375 19.410156 C 13.871094 19.332031 13.882812 19.246094 13.886719 19.164062 Z M 9.925781 19.164062 "/>
<path style=" stroke:none;fill-rule:nonzero;fill:rgb(100%,100%,100%);fill-opacity:0.196078;" d="M 10.070312 5.023438 C 10.425781 5.230469 10.382812 5.972656 9.972656 6.6875 C 9.558594 7.398438 8.9375 7.808594 8.582031 7.601562 C 8.226562 7.398438 8.269531 6.652344 8.683594 5.941406 C 9.09375 5.230469 9.714844 4.820312 10.070312 5.023438 Z M 10.070312 5.023438 "/>
</g>
</svg>
